X:1
T: Mowden Hall
C:
R:Jig
Q:180
K:F
M:6/8
L:1/16
C2|F4F2 f4f2|e4d2 c6|d4c2 B2c2d2|c4B2 A4C2|F4F2 f4f2|e4d2 c2d2e2|f4f2 g2f2g2|a4f2 f4C2|
F4F2 f4f2|e4d2 c6|d4c2 B2c2d2|c4B2 A4C2|F4F2 f4f2|e4d2 c2d2e2|f4f2 g2f2g2|a4f2 f4a2|
g2c2c2 a2c2c2|g2c2c2 e2d2c2|f2F2F2 d2F2F2|c2F2F2 A2G2F2|g2c2c2 a2c2c2|g2c2c2 e2d2c2|f2F2F2 d2F2F2|d2G2F2 E2D2C2|
F4F2 f4f2|e4d2 c6|d4c2 B2c2d2|c4B2 A4C2|F4F2 f4f2|e4f2 g2a2b2|a4f2 g2f2e2|f4F2F4||
